X: 25
%
U:~=!turn!
T: The Banks of Garry
C:
O:Scotland
B:Keith Norman MacDonald : "The Skye collection of the best reels & strathspeys extant" : 1887
Z:Ralph Palmer
R:Strathspey
M:C
L:1/8
K:D
(F/G/) | A>BA>F A>B{/c}d>f | (A>B)A>F E/E/E (EF/G/) | A>BA<F A>B{/c}d>f | {/G}F>DE>F D/D/D D :|
(f/g/) | a>fd>f (A<d)Tf>d | (e>d)f>d e/e/e Te(f/g/) | a>fd<f e<df<d | B>AB>d D/D/D TF(f/g/) |
a>fd<f (A<d)Tf>d | (e<d)f>d e/e/e e2 | f>de>d TB>A d>F | TE>DE>F D/D/D D |]


